X: 29982
T: Och Is Duine Truagh Mi
R: reel
M: 4/4
K: Amixolydian
|:c|~A3 B ~c3 B|cBce ~f2 e2|~A3 B ~c3 e|f2 ec ~B3:|
|:c|e2 fe ~A3 c|e2 fe ~c2 Bc|e2 fe ~A3 c|f2 ec ~B3 c|e2 fe ~A3 c|e2 fe ~c2 Bc|e2 fe ~A2 ec|f2 ec ~B3:|

